X: 30591
T: ABRAHAM NEWLAND
C:
%R: jig
B: Elias Howe "The Musician's Companion" Part 3 1844 p.59 #1
S: http://imslp.org/wiki/The_Musician's_Companion_(Howe,_Elias)
S: https://archive.org/stream/firstthirdpartof03howe/#page/66/mode/1up
Z: 2015 John Chambers <jc:trillian.mit.edu>
M: 6/8
L: 1/8
K: G
% - - - - - - - - - - - - - - - - - - - - - - - - -
|:\
B2B Bcd | e2e e3 | d2d d2B | d3 B3 |\
B3B Bcd | e2e e3 | def g2G | A3 G3 :|
g2g f2f | e2e def | g2g f2d | e3 d3 |\
gbg faf | ege def | (g//a//b3/)g fed | e3 df"^D.C."c |]
% - - - - - - - - - - - - - - - - - - - - - - - - -
